communes/741.svg

<?xml version="1.0" encoding="UTF-8" standalone="no"?>
<svg
   xmlns:dc="http://purl.org/dc/elements/1.1/"
   xmlns:cc="http://creativecommons.org/ns#"
   xmlns:rdf="http://www.w3.org/1999/02/22-rdf-syntax-ns#"
   xmlns:svg="http://www.w3.org/2000/svg"
   xmlns="http://www.w3.org/2000/svg"
   xmlns:xlink="http://www.w3.org/1999/xlink"
   xmlns:sodipodi="http://sodipodi.sourceforge.net/DTD/sodipodi-0.dtd"
   xmlns:inkscape="http://www.inkscape.org/namespaces/inkscape"
   height="763"
   width="603"
   version="1.0"
   id="svg20"
   sodipodi:version="0.32"
   inkscape:version="0.46"
   sodipodi:docname="Merzligen-coat of arms.svg"
   sodipodi:docbase="C:\Users\Camilo\Documents\Escudos de Suiza"
   inkscape:output_extension="org.inkscape.output.svg.inkscape">
  <metadata
     id="metadata31">
    <rdf:RDF>
      <cc:Work
         rdf:about="">
        <dc:format>image/svg+xml</dc:format>
        <dc:type
           rdf:resource="http://purl.org/dc/dcmitype/StillImage" />
        <dc:date>07-AUG-2009</dc:date>
        <dc:creator>
          <cc:Agent>
            <dc:title>Juan G (aliman5040)</dc:title>
          </cc:Agent>
        </dc:creator>
        <cc:license
           rdf:resource="http://creativecommons.org/licenses/GPL/2.0/" />
        <dc:coverage />
        <dc:description />
        <dc:subject>
          <rdf:Bag />
        </dc:subject>
        <dc:language />
        <dc:title>Wappen Gemeinde Merzligen</dc:title>
      </cc:Work>
      <cc:License
         rdf:about="http://creativecommons.org/licenses/GPL/2.0/">
        <cc:permits
           rdf:resource="http://web.resource.org/cc/Reproduction" />
        <cc:permits
           rdf:resource="http://web.resource.org/cc/Distribution" />
        <cc:requires
           rdf:resource="http://web.resource.org/cc/Notice" />
        <cc:permits
           rdf:resource="http://web.resource.org/cc/DerivativeWorks" />
        <cc:requires
           rdf:resource="http://web.resource.org/cc/ShareAlike" />
        <cc:requires
           rdf:resource="http://web.resource.org/cc/SourceCode" />
      </cc:License>
    </rdf:RDF>
  </metadata>
  <defs
     id="defs29">
    <inkscape:perspective
       sodipodi:type="inkscape:persp3d"
       inkscape:vp_x="0 : 381.5 : 1"
       inkscape:vp_y="0 : 1000 : 0"
       inkscape:vp_z="603 : 381.5 : 1"
       inkscape:persp3d-origin="301.5 : 254.33333 : 1"
       id="perspective5149" />
    <linearGradient
       id="linearGradient2893">
      <stop
         style="stop-color:#ffffff;stop-opacity:0.3137255;"
         offset="0"
         id="stop2895" />
      <stop
         id="stop2897"
         offset="0.19"
         style="stop-color:#ffffff;stop-opacity:0.25098041;" />
      <stop
         style="stop-color:#6b6b6b;stop-opacity:0.1254902;"
         offset="0.60000002"
         id="stop2901" />
      <stop
         style="stop-color:#000000;stop-opacity:0.1254902;"
         offset="1"
         id="stop2899" />
    </linearGradient>
    <radialGradient
       inkscape:collect="always"
       xlink:href="#linearGradient2893"
       id="radialGradient3236"
       gradientUnits="userSpaceOnUse"
       gradientTransform="matrix(1.215027,1.531577e-24,1.464684e-23,1.266667,-839.1924,-490.4894)"
       cx="858.04236"
       cy="579.93323"
       fx="858.04236"
       fy="579.93323"
       r="300" />
    <inkscape:perspective
       id="perspective5197"
       inkscape:persp3d-origin="372.04724 : 350.78739 : 1"
       inkscape:vp_z="744.09448 : 526.18109 : 1"
       inkscape:vp_y="0 : 1000 : 0"
       inkscape:vp_x="0 : 526.18109 : 1"
       sodipodi:type="inkscape:persp3d" />
    <inkscape:perspective
       id="perspective8046"
       inkscape:persp3d-origin="372.04724 : 350.78739 : 1"
       inkscape:vp_z="744.09448 : 526.18109 : 1"
       inkscape:vp_y="0 : 1000 : 0"
       inkscape:vp_x="0 : 526.18109 : 1"
       sodipodi:type="inkscape:persp3d" />
    <inkscape:perspective
       id="perspective9383"
       inkscape:persp3d-origin="372.04724 : 350.78739 : 1"
       inkscape:vp_z="744.09448 : 526.18109 : 1"
       inkscape:vp_y="0 : 1000 : 0"
       inkscape:vp_x="0 : 526.18109 : 1"
       sodipodi:type="inkscape:persp3d" />
    <inkscape:perspective
       id="perspective9513"
       inkscape:persp3d-origin="372.04724 : 350.78739 : 1"
       inkscape:vp_z="744.09448 : 526.18109 : 1"
       inkscape:vp_y="0 : 1000 : 0"
       inkscape:vp_x="0 : 526.18109 : 1"
       sodipodi:type="inkscape:persp3d" />
    <inkscape:perspective
       id="perspective9597"
       inkscape:persp3d-origin="372.04724 : 350.78739 : 1"
       inkscape:vp_z="744.09448 : 526.18109 : 1"
       inkscape:vp_y="0 : 1000 : 0"
       inkscape:vp_x="0 : 526.18109 : 1"
       sodipodi:type="inkscape:persp3d" />
    <inkscape:perspective
       id="perspective9760"
       inkscape:persp3d-origin="372.04724 : 350.78739 : 1"
       inkscape:vp_z="744.09448 : 526.18109 : 1"
       inkscape:vp_y="0 : 1000 : 0"
       inkscape:vp_x="0 : 526.18109 : 1"
       sodipodi:type="inkscape:persp3d" />
    <inkscape:perspective
       id="perspective9857"
       inkscape:persp3d-origin="372.04724 : 350.78739 : 1"
       inkscape:vp_z="744.09448 : 526.18109 : 1"
       inkscape:vp_y="0 : 1000 : 0"
       inkscape:vp_x="0 : 526.18109 : 1"
       sodipodi:type="inkscape:persp3d" />
    <inkscape:perspective
       id="perspective5219"
       inkscape:persp3d-origin="372.04724 : 350.78739 : 1"
       inkscape:vp_z="744.09448 : 526.18109 : 1"
       inkscape:vp_y="0 : 1000 : 0"
       inkscape:vp_x="0 : 526.18109 : 1"
       sodipodi:type="inkscape:persp3d" />
    <inkscape:perspective
       id="perspective2545"
       inkscape:persp3d-origin="372.04724 : 350.78739 : 1"
       inkscape:vp_z="744.09448 : 526.18109 : 1"
       inkscape:vp_y="0 : 1000 : 0"
       inkscape:vp_x="0 : 526.18109 : 1"
       sodipodi:type="inkscape:persp3d" />
    <inkscape:perspective
       id="perspective3433"
       inkscape:persp3d-origin="372.04724 : 350.78739 : 1"
       inkscape:vp_z="744.09448 : 526.18109 : 1"
       inkscape:vp_y="0 : 1000 : 0"
       inkscape:vp_x="0 : 526.18109 : 1"
       sodipodi:type="inkscape:persp3d" />
  </defs>
  <sodipodi:namedview
     inkscape:window-height="720"
     inkscape:window-width="1280"
     inkscape:pageshadow="2"
     inkscape:pageopacity="0.0"
     guidetolerance="10.0"
     gridtolerance="10.0"
     objecttolerance="10.0"
     borderopacity="1.0"
     bordercolor="#666666"
     pagecolor="#ffffff"
     id="base"
     inkscape:zoom="0.5959443"
     inkscape:cx="531.13623"
     inkscape:cy="369.39895"
     inkscape:window-x="-8"
     inkscape:window-y="-8"
     inkscape:current-layer="layer2"
     showgrid="true"
     showguides="true"
     inkscape:guide-bbox="true">
    <inkscape:grid
       type="xygrid"
       id="grid5151" />
  </sodipodi:namedview>
  <g
     inkscape:groupmode="layer"
     id="layer1"
     inkscape:label="Fond écu"
     style="display:inline"
     sodipodi:insensitive="true">
    <path
       id="path1899"
       d="M 1.5,1.49998 L 1.5,460.3679 C 1.5,626.6785 135.81456,761.5 301.49999,761.5 C 467.18543,761.5 601.5,626.6785 601.5,460.3679 L 601.5,1.49998 L 1.5,1.49998 z"
       style="fill:#ffffff;fill-opacity:1" />
  </g>
  <g
     inkscape:groupmode="layer"
     id="layer2"
     inkscape:label="Meubles"
     style="display:inline"
     sodipodi:insensitive="true">
    <path
       d=""
       style="fill:none;fill-opacity:1;fill-rule:evenodd;stroke:#000000;stroke-width:4.27536249;stroke-miterlimit:4;stroke-dasharray:none;stroke-opacity:1"
       id="path5257"
       sodipodi:nodetypes="cc" />
    <g
       id="g3487"
       transform="matrix(4.1134745,0,0,4.1134752,-2557.3648,-2361.3972)">
      <rect
         y="627.65979"
         x="724.82294"
         height="22.296461"
         width="14.979412"
         id="rect3479"
         style="opacity:1;fill:#5ab532;fill-opacity:1;fill-rule:evenodd;stroke:#000000;stroke-width:1.39535308;stroke-miterlimit:4;stroke-dasharray:none;stroke-opacity:1" />
      <path
         sodipodi:nodetypes="ccccc"
         id="path3473"
         d="M 720,593 C 723,587 716,585 715,580 C 711,584 704,579 701,589 L 712,597 L 720,593 z"
         style="opacity:1;fill:#5ab532;fill-opacity:1;fill-rule:evenodd;stroke:#000000;stroke-width:1;stroke-miterlimit:4;stroke-dasharray:none;stroke-opacity:1" />
      <path
         style="opacity:1;fill:#5ab532;fill-opacity:1;fill-rule:evenodd;stroke:#000000;stroke-width:1;stroke-miterlimit:4;stroke-dasharray:none;stroke-opacity:1"
         d="M 755,653 C 760,652 757.74477,648.60982 763,644 C 759.30708,640.49091 761,636 754,634 L 744,643 L 755,653 z"
         id="path3471"
         sodipodi:nodetypes="ccccc" />
      <path
         sodipodi:nodetypes="csccsc"
         id="path3451"
         d="M 732,632 C 724.15672,626.41763 722.64641,614.40865 732,608 C 742.06972,601.10066 749.50267,612.30861 758.98547,612.03196 L 758.98547,612.03196 C 751.83924,618.54271 762.05752,633.81222 748,642 C 742.75508,645.05489 732.40616,644.56335 732,632 z"
         style="opacity:1;fill:#5ab532;fill-opacity:1;fill-rule:evenodd;stroke:#000000;stroke-width:1;stroke-miterlimit:4;stroke-dasharray:none;stroke-opacity:1" />
      <path
         style="opacity:1;fill:#5ab532;fill-opacity:1;fill-rule:evenodd;stroke:#000000;stroke-width:1;stroke-miterlimit:4;stroke-dasharray:none;stroke-opacity:1"
         d="M 710,598 C 717.54767,588 725.54127,595.78352 738.44561,593 C 735.4785,614.71365 735,626 725,633 C 700,638 709.19929,614.91114 710,598 z"
         id="path3457"
         sodipodi:nodetypes="cccc" />
      <path
         sodipodi:nodetypes="cc"
         id="path3465"
         d="M 718.39181,610.80701 L 730,599.9883"
         style="opacity:1;fill:#5ab532;fill-opacity:1;fill-rule:evenodd;stroke:#000000;stroke-width:1;stroke-miterlimit:4;stroke-dasharray:none;stroke-opacity:1" />
      <path
         sodipodi:nodetypes="ccccccc"
         id="path3483"
         d="M 680,624 L 709,624 L 704,658 L 697,669 L 693,669 L 685,657 L 680,624 z"
         style="opacity:1;fill:#5ab532;fill-opacity:1;fill-rule:evenodd;stroke:#000000;stroke-width:1;stroke-miterlimit:4;stroke-dasharray:none;stroke-opacity:1" />
      <path
         style="opacity:1;fill:#5ab532;fill-opacity:1;fill-rule:evenodd;stroke:#000000;stroke-width:1;stroke-miterlimit:4;stroke-dasharray:none;stroke-opacity:1"
         d="M 669,594 C 667,588 673.74201,585 674.74201,580 C 678.74201,584 686,581 689,591 L 679,598 L 669,594 z"
         id="path3475"
         sodipodi:nodetypes="ccccc" />
      <rect
         y="625.38226"
         x="650.47638"
         height="25.201527"
         width="14.765878"
         id="rect3477"
         style="opacity:1;fill:#5ab532;fill-opacity:1;fill-rule:evenodd;stroke:#000000;stroke-width:1.28603208;stroke-miterlimit:4;stroke-dasharray:none;stroke-opacity:1" />
      <path
         sodipodi:nodetypes="ccccc"
         id="path3469"
         d="M 635,634 C 630,635 632.25523,638.39018 627,643 C 630.69292,646.50909 630,651 637,653 L 645,643 L 635,634 z"
         style="opacity:1;fill:#5ab532;fill-opacity:1;fill-rule:evenodd;stroke:#000000;stroke-width:1;stroke-miterlimit:4;stroke-dasharray:none;stroke-opacity:1" />
      <path
         style="opacity:1;fill:#5ab532;fill-opacity:1;fill-rule:evenodd;stroke:#000000;stroke-width:1;stroke-miterlimit:4;stroke-dasharray:none;stroke-opacity:1"
         d="M 656.52426,632 C 664.36754,626.41763 666.86755,619.49123 660,613 C 651.12903,604.61513 641.94557,611.13902 632.46277,610.86237 L 632.46277,610.86237 C 638.47592,621.15003 626.46386,633.82182 640.52426,642 C 645.77101,645.05175 656.1181,644.56335 656.52426,632 z"
         id="path3453"
         sodipodi:nodetypes="csccsc" />
      <path
         sodipodi:nodetypes="cccc"
         id="path3455"
         d="M 680,598 C 672.01373,590.0629 666.12071,595.78352 653.21637,593 C 656.18348,614.71365 649,623 665,633 C 690.80696,640.1451 680.80071,614.91114 680,598 z"
         style="opacity:1;fill:#5ab532;fill-opacity:1;fill-rule:evenodd;stroke:#000000;stroke-width:1;stroke-miterlimit:4;stroke-dasharray:none;stroke-opacity:1" />
      <path
         sodipodi:nodetypes="cc"
         id="path3463"
         d="M 671.49123,611.39181 L 660,600.19298"
         style="opacity:1;fill:#5ab532;fill-opacity:1;fill-rule:evenodd;stroke:#000000;stroke-width:1;stroke-miterlimit:4;stroke-dasharray:none;stroke-opacity:1" />
      <path
         sodipodi:nodetypes="cscsc"
         id="path3445"
         d="M 695,623 C 698,634 720,637 720,617 C 720,589 695.72792,593.85054 695,580 C 692.57239,594.70474 670,593 670,617 C 670,634 692,637 695,623 z"
         style="opacity:1;fill:#5ab532;fill-opacity:1;fill-rule:evenodd;stroke:#000000;stroke-width:1;stroke-miterlimit:4;stroke-dasharray:none;stroke-opacity:1" />
      <path
         sodipodi:nodetypes="ccccc"
         id="path3467"
         d="M 691,640 L 695,623 L 695,595.80702 L 695,623 L 699,640"
         style="opacity:1;fill:none;fill-opacity:1;fill-rule:evenodd;stroke:#000000;stroke-width:1;stroke-miterlimit:4;stroke-dasharray:none;stroke-opacity:1" />
      <path
         style="opacity:1;fill:#5ab532;fill-opacity:1;fill-rule:evenodd;stroke:#000000;stroke-width:1;stroke-miterlimit:4;stroke-dasharray:none;stroke-opacity:1"
         d="M 729.51234,660.38406 C 729.51234,650.75701 736.63106,640.63212 747.27609,644.53646 C 758.73614,648.73971 756.04937,665.43466 761.7735,673 L 761.7735,673 C 752.32526,670.95322 742.2877,688 727.46556,681.29495 C 721.93536,678.79327 719.51234,668 729.51234,660.38406 z"
         id="path3449"
         sodipodi:nodetypes="csccsc" />
      <path
         id="path3461"
         d="M 732.30994,659.92982 L 755,670.30994"
         style="opacity:1;fill:#5ab532;fill-opacity:1;fill-rule:evenodd;stroke:#000000;stroke-width:1;stroke-miterlimit:4;stroke-dasharray:none;stroke-opacity:1" />
      <path
         sodipodi:nodetypes="cscccsc"
         id="path3441"
         d="M 705,658 C 694,655 692.89236,645.83414 700,637 C 707.65182,627.4895 724,634 733,631 L 750,618 L 733,631 C 728.67403,654.94372 739,662 727,669 C 720.40465,672.84729 707.02279,672.57169 705,658 z"
         style="opacity:1;fill:#5ab532;fill-opacity:1;fill-rule:evenodd;stroke:#000000;stroke-width:1;stroke-miterlimit:4;stroke-dasharray:none;stroke-opacity:1" />
      <path
         sodipodi:nodetypes="csccsc"
         id="path3447"
         d="M 660,660.38406 C 660,650.75701 654.63567,639.75493 643.99064,643.65927 C 632.53059,647.86252 633.46297,665.43466 627.73884,673 L 627.73884,673 C 637.04088,673 650.14862,688.22118 660,681.44115 C 665,678 670,668 660,660.38406 z"
         style="opacity:1;fill:#5ab532;fill-opacity:1;fill-rule:evenodd;stroke:#000000;stroke-width:1;stroke-miterlimit:4;stroke-dasharray:none;stroke-opacity:1" />
      <path
         id="path3459"
         d="M 660,658 L 638.01169,668"
         style="opacity:1;fill:#5ab532;fill-opacity:1;fill-rule:evenodd;stroke:#000000;stroke-width:1;stroke-miterlimit:4;stroke-dasharray:none;stroke-opacity:1" />
      <path
         style="opacity:1;fill:#5ab532;fill-opacity:1;fill-rule:evenodd;stroke:#000000;stroke-width:1;stroke-miterlimit:4;stroke-dasharray:none;stroke-opacity:1"
         d="M 684.51548,658 C 695.51548,655 696.62312,645.83414 689.51548,637 C 681.86366,627.4895 665.51548,634 656.51548,631 L 639,615 L 656.51548,631 C 660.84145,654.94372 652,662 664,669 C 670.59535,672.84729 682.49269,672.57169 684.51548,658 z"
         id="path3443"
         sodipodi:nodetypes="cscccsc" />
      <path
         sodipodi:nodetypes="cccccc"
         id="path3439"
         d="M 715,708.97241 C 696.81913,699.1451 701.09383,654.04927 725,638 C 710.75323,643.54011 703.28259,656.43794 695,668 C 688.0739,656.30377 676.36348,646.52127 664,637 C 686.32082,660.40937 692.61603,688.19125 675,708.97241 L 715,708.97241 z"
         style="opacity:1;fill:#5ab532;fill-opacity:1;fill-rule:evenodd;stroke:#000000;stroke-width:1;stroke-miterlimit:4;stroke-dasharray:none;stroke-opacity:1" />
    </g>
    <path
       style="fill:#5ab532;fill-opacity:1;fill-rule:evenodd;stroke:#000000;stroke-width:2.99975181;stroke-miterlimit:4;stroke-dasharray:none;stroke-opacity:1"
       d="M 16,553 C 52.969744,667.87484 156.80034,752.56304 281.46875,760.8125 L 321.53125,760.8125 C 446.19971,752.56304 550.03024,667.87485 587,553 L 16,553 z"
       id="rect3485" />
  </g>
  <g
     inkscape:groupmode="layer"
     id="layer3"
     inkscape:label="Reflet final"
     style="display:inline"
     sodipodi:insensitive="true">
    <path
       style="fill:url(#radialGradient3236);fill-opacity:1"
       d="M 1.5,1.5 L 1.5,460.3679 C 1.5,626.67854 135.81454,761.5 301.49993,761.5 C 467.1854,761.5 601.5,626.67854 601.5,460.3679 L 601.5,1.5 L 1.5,1.5 z "
       id="path2346" />
  </g>
  <g
     inkscape:groupmode="layer"
     id="layer4"
     inkscape:label="Contour final"
     style="display:inline"
     sodipodi:insensitive="true">
    <path
       style="fill:none;fill-opacity:1;stroke:#000000;stroke-width:3;stroke-miterlimit:4;stroke-dasharray:none;stroke-opacity:1"
       d="M 1.5,1.5 L 1.5,460.36794 C 1.5,626.67854 135.81454,761.5 301.49993,761.5 C 467.1854,761.5 601.5,626.67854 601.5,460.36794 L 601.5,1.5 L 1.5,1.5 z"
       id="path3239" />
  </g>
</svg>

<?xml version="1.0" encoding="UTF-8"?>
<svg version="1.0" viewBox="0 0 603 763" xmlns="http://www.w3.org/2000/svg" xmlns:cc="http://creativecommons.org/ns#" xmlns:dc="http://purl.org/dc/elements/1.1/" xmlns:rdf="http://www.w3.org/1999/02/22-rdf-syntax-ns#" xmlns:xlink="http://www.w3.org/1999/xlink">
<metadata>
<rdf:RDF>
<cc:Work rdf:about="">
<dc:format>image/svg+xml</dc:format>
<dc:type rdf:resource="http://purl.org/dc/dcmitype/StillImage"/>
<dc:date>07-AUG-2009</dc:date>
<dc:creator>
<cc:Agent>
<dc:title>Juan G (aliman5040)</dc:title>
</cc:Agent>
</dc:creator>
<cc:license rdf:resource="http://creativecommons.org/licenses/GPL/2.0/"/>
<dc:coverage/>
<dc:description/>
<dc:subject>
<rdf:Bag/>
</dc:subject>
<dc:language/>
<dc:title>Wappen Gemeinde Merzligen</dc:title>
</cc:Work>
<cc:License rdf:about="http://creativecommons.org/licenses/GPL/2.0/">
<cc:permits rdf:resource="http://web.resource.org/cc/Reproduction"/>
<cc:permits rdf:resource="http://web.resource.org/cc/Distribution"/>
<cc:requires rdf:resource="http://web.resource.org/cc/Notice"/>
<cc:permits rdf:resource="http://web.resource.org/cc/DerivativeWorks"/>
<cc:requires rdf:resource="http://web.resource.org/cc/ShareAlike"/>
<cc:requires rdf:resource="http://web.resource.org/cc/SourceCode"/>
</cc:License>
</rdf:RDF>
</metadata>
<defs>
<radialGradient id="a" cx="858.04" cy="579.93" r="300" gradientTransform="matrix(1.215 1.5316e-24 1.4647e-23 1.2667 -839.19 -490.49)" gradientUnits="userSpaceOnUse">
<stop stop-color="#fff" stop-opacity=".31373" offset="0"/>
<stop stop-color="#fff" stop-opacity=".25098" offset=".19"/>
<stop stop-color="#6b6b6b" stop-opacity=".12549" offset=".6"/>
<stop stop-opacity=".12549" offset="1"/>
</radialGradient>
</defs>
<g>
<path d="m1.5 1.5v458.87c0 166.31 134.31 301.13 300 301.13 165.69 0 300-134.82 300-301.13v-458.87h-600z" fill="#fff"/>
<g transform="matrix(4.1135 0 0 4.1135 -2557.4 -2361.4)" stroke="#000">
<rect x="724.82" y="627.66" width="14.979" height="22.296" fill="#5ab532" fill-rule="evenodd" stroke-width="1.3954"/>
<path d="m720 593c3-6-4-8-5-13-4 4-11-1-14 9l11 8 8-4z" fill="#5ab532" fill-rule="evenodd"/>
<path d="m755 653c5-1 2.7448-4.3902 8-9-3.6929-3.5091-2-8-9-10l-10 9 11 10z" fill="#5ab532" fill-rule="evenodd"/>
<path d="m732 632c-7.8433-5.5824-9.3536-17.591 0-24 10.07-6.8993 17.503 4.3086 26.985 4.032-7.1462 6.5108 3.072 21.78-10.985 29.968-5.2449 3.0549-15.594 2.5634-16-10z" fill="#5ab532" fill-rule="evenodd"/>
<path d="m710 598c7.5477-10 15.541-2.2165 28.446-5-2.9671 21.714-3.4456 33-13.446 40-25 5-15.801-18.089-15-35z" fill="#5ab532" fill-rule="evenodd"/>
<path d="m718.39 610.81 11.608-10.819" fill="#5ab532" fill-rule="evenodd"/>
<path d="m680 624h29l-5 34-7 11h-4l-8-12-5-33z" fill="#5ab532" fill-rule="evenodd"/>
<path d="m669 594c-2-6 4.742-9 5.742-14 4 4 11.258 1 14.258 11l-10 7-10-4z" fill="#5ab532" fill-rule="evenodd"/>
<rect x="650.48" y="625.38" width="14.766" height="25.202" fill="#5ab532" fill-rule="evenodd" stroke-width="1.286"/>
<path d="m635 634c-5 1-2.7448 4.3902-8 9 3.6929 3.5091 3 8 10 10l8-10-10-9z" fill="#5ab532" fill-rule="evenodd"/>
<path d="m656.52 632c7.8433-5.5824 10.343-12.509 3.4757-19-8.871-8.3849-18.054-1.861-27.537-2.1376 6.0132 10.288-5.9989 22.959 8.0615 31.138 5.2468 3.0518 15.594 2.5634 16-10z" fill="#5ab532" fill-rule="evenodd"/>
<path d="m680 598c-7.9863-7.9371-13.879-2.2165-26.784-5 2.9671 21.714-4.2164 30 11.784 40 25.807 7.1451 15.801-18.089 15-35z" fill="#5ab532" fill-rule="evenodd"/>
<path d="m671.49 611.39-11.491-11.199" fill="#5ab532" fill-rule="evenodd"/>
<path d="m695 623c3 11 25 14 25-6 0-28-24.272-23.149-25-37-2.4276 14.705-25 13-25 37 0 17 22 20 25 6z" fill="#5ab532" fill-rule="evenodd"/>
<path d="m691 640 4-17v-27.193 27.193l4 17" fill="none"/>
<path d="m729.51 660.38c0-9.627 7.1187-19.752 17.764-15.848 11.46 4.2032 8.7733 20.898 14.497 28.464-9.4482-2.0468-19.486 15-34.308 8.295-5.5302-2.5017-7.9532-13.295 2.0468-20.911z" fill="#5ab532" fill-rule="evenodd"/>
<path d="m732.31 659.93 22.69 10.38" fill="#5ab532" fill-rule="evenodd"/>
<path d="m705 658c-11-3-12.108-12.166-5-21 7.6518-9.5105 24-3 33-6l17-13-17 13c-4.326 23.944 6 31-6 38-6.5954 3.8473-19.977 3.5717-22-11z" fill="#5ab532" fill-rule="evenodd"/>
<path d="m660 660.38c0-9.627-5.3643-20.629-16.009-16.725-11.46 4.2032-10.528 21.775-16.252 29.341 9.302 0 22.41 15.221 32.261 8.4412 5-3.4412 10-13.441 0-21.057z" fill="#5ab532" fill-rule="evenodd"/>
<path d="m660 658-21.988 10" fill="#5ab532" fill-rule="evenodd"/>
<path d="m684.52 658c11-3 12.108-12.166 5-21-7.6518-9.5105-24-3-33-6l-17.515-16 17.515 16c4.326 23.944-4.5155 31 7.4845 38 6.5954 3.8473 18.493 3.5717 20.515-11z" fill="#5ab532" fill-rule="evenodd"/>
<path d="m715 708.97c-18.181-9.8273-13.906-54.923 10-70.972-14.247 5.5401-21.717 18.438-30 30-6.9261-11.696-18.637-21.479-31-31 22.321 23.409 28.616 51.191 11 71.972h40z" fill="#5ab532" fill-rule="evenodd"/>
</g>
<path d="m16 553c36.97 114.87 140.8 199.56 265.47 207.81h40.062c124.67-8.2495 228.5-92.938 265.47-207.81h-571z" fill="#5ab532" fill-rule="evenodd" stroke="#000" stroke-width="2.9998"/>
<path d="m1.5 1.5v458.87c0 166.31 134.31 301.13 300 301.13 165.69 0 300-134.82 300-301.13v-458.87h-600z" fill="url(#a)"/>
<path d="m1.5 1.5v458.87c0 166.31 134.31 301.13 300 301.13 165.69 0 300-134.82 300-301.13v-458.87h-600z" fill="none" stroke="#000" stroke-width="3"/>
</g>
</svg>
